X:1
T:Care lagrime
T:Care lagrime
T:Giovanni Ghizzolo
C:Giovanni Ghizzolo
%%score [ 1 2 3 ]
L:1/8
Q:1/4=120
M:4/4
K:C
V:1 treble nm="Soprano" snm="S"
V:2 treble nm="MusicXML Part"
V:3 bass nm="BC" snm="BC"
V:1
"^Source:Madrigali et Arie---Libro primo---Venetia---A.Raverij.1609.""^Editor: : André Vierendeels (07/05/07)\nContinuo : André Vierendeels" z2 ee d4- | %1
w: Ca- re la-|
 e2 cB B4 | B4 d4- | d6 GG | A4 A4 | z2 BB B4- | B6 c2 | B8 | A4 z2 ^cc | ^c2 d4 c2 | d4 d2 A2 | %11
w: * gri- me mi-|e mes-|* si do-|len- ti|di- mie pe-|* ne-|ri-|e Poi che|voi non po-|te- te Far|
 _B6 c/B/A/G/ | A3 G G2 G2 | z2 AA A2 AG | A4 z2 ee | e2 ed e4 | z2 B2 c4- | c2 B2 B4 | A8 :: %19
w: mol- leoi _ _ _|me quel co- re|che non ha- ve pie-|ta che non|ha- ve pie- ta|del mio|_ do- lo-|re|
 z2 e2 e2 d2 | c3 A B4 | B4 z2 Bc | d2 cB A2 B2 | ^c2 d2 e4 | d4 z2 A2 | _B4 =B2 B2 | c4- ^c2 c2 | %27
w: Al- men de|cor- te- si-|a a- mor-|za- te l'acce _ sa|fiam- ma mi-|a o|pur _ cre-|sce- * te|
 d4 ^d4 | e4 z eBA | ^G4 G2 BB | B8- | B6 c/d/e | B8 | A8 :| %34
w: tan- *|to * mi som-|mer- ga nel mio|stes-|* so _ _|pian-|to.|
V:2
 [EGc]4 [Gd]4 | c4 B4 | [DG]8 | [^FA]8 | [D^F]8 | [DG]8 | E4 [^FA]4 | A4 ^G4 | [E^c]8 | %9
 A4 B2 [EA]2 | [D^FA]8 | [D_B]8 | [D^FA]4 [DG]4 | [FA]4 [CG]4 | ^F4 [EA]4 | G4 [Ac]4 | %16
 [EB]4 F2 E2 | F4 [E^GB]4 | [E^c]8 :: [Gc]6 [GBd]2 | [EA]2 [DF]2 G4 | [B,E]4 [DG]4 | %22
 [FA]2 [EG]2 D4 | [EA]8 | [^FA]8 | [DF]4 [DG]4 | [EG]4 E4 | [^FA]4 [FB]4 | [GB]8 | [E^GB]8 | %30
 [E^GB]4 [^FB]4 | [E^GB]4 [EA]4 | ^G2 A2 B2 [Ge]2 | [E^c]8 :| %34
V:3
 C,6 B,,A,, | E,8 | B,,6 A,,G,, |"^#" D,8 |"^#" D,8 | B,,8 | ^C,4 D,4 | E,4 E,,4 | A,,4 z2 A,A, | %9
 A,4 ^G,2 A,2 |"^#" D,4"^#" D,4 | G,,4 G,,4 |"^#" D,4 G,,4 | D,4 _E,4 | D,4 A,,4 | _B,,4 A,,4 | %16
 E,4 D,2 C,2 | D,4 E,4 | A,,8 :: z2 C,2 C,2 G,2 | A,2 F,2 E,4 | E,2 E,F, G,2 F,E, | %22
 D,2 E,2 ^F,2 G,2 | A,8 | D,8 | _B,,4 G,,4 | C,4 A,,4 | D,4 B,,4 | E,8 | %29
 E,,8"^original keys: Ut 1st, Fa 4rth" | E,4 ^D,4 | E,4 A,,4 | E,4 E,,4 | E,8 :| %34

